src/images/header-icon-telegramm.svg

<svg width="16" height="15" viewBox="0 0 16 15" fill="none" xmlns="http://www.w3.org/2000/svg">
<path d="M0.26806 7.2332L3.78264 8.54372L5.15272 12.9518C5.21229 13.2497 5.56971 13.3092 5.80798 13.1305L7.77375 11.5222C7.95246 11.3435 8.25031 11.3435 8.48859 11.5222L12.0032 14.0836C12.2414 14.2623 12.5988 14.1432 12.6584 13.8454L15.2794 1.33587C15.339 1.03803 15.0412 0.740188 14.7433 0.859326L0.26806 6.45881C-0.0893534 6.57795 -0.0893534 7.11406 0.26806 7.2332ZM4.97402 7.88846L11.884 3.65906C12.0031 3.5995 12.1223 3.7782 12.0032 3.83777L6.3441 9.13941C6.16539 9.31812 5.98668 9.55639 5.98668 9.85424L5.80798 11.2839C5.80798 11.4626 5.51013 11.5222 5.45057 11.2839L4.73573 8.66286C4.55702 8.36501 4.67618 8.0076 4.97402 7.88846Z" fill="white"/>
</svg>

<svg width="16" height="15" fill="none" xmlns="http://www.w3.org/2000/svg"><path d="m.268 7.233 3.515 1.31 1.37 4.409c.06.298.417.357.655.178l1.966-1.608c.178-.178.476-.178.715 0l3.514 2.562c.238.178.596.06.655-.239l2.621-12.51c.06-.297-.238-.595-.536-.476L.268 6.46c-.357.119-.357.655 0 .774Zm4.706.655 6.91-4.229c.12-.06.238.12.12.179l-5.66 5.301c-.179.18-.357.417-.357.715l-.179 1.43c0 .179-.298.238-.357 0l-.715-2.621c-.179-.298-.06-.655.238-.775Z" fill="#fff"/></svg>
